images/insure.svg

<svg width="88" height="88" viewBox="0 0 88 88" fill="none" xmlns="http://www.w3.org/2000/svg">
<g id="Group 9">
<g id="Oval" filter="url(#filter0_i_0_1337)">
<circle cx="44" cy="44" r="44" fill="#403646"/>
</g>
<g id="INSURE 2">
<path id="INSURE" fill-rule="evenodd" clip-rule="evenodd" d="M33.0338 46.7542C32.7044 46.6103 32.3797 46.4486 32.0597 46.2692L31.1054 47.7103C31.4404 47.9009 31.8046 48.0757 32.198 48.2346C32.5914 48.3935 33.0055 48.5299 33.4404 48.6439C33.8752 48.7579 34.3297 48.8458 34.8041 48.9075C35.2784 48.9692 35.764 49 36.261 49C37.0139 49 37.6971 48.9299 38.3108 48.7897C38.9244 48.6495 39.4486 48.4439 39.8834 48.1729C40.3182 47.9019 40.6533 47.5692 40.8886 47.1748C41.1239 46.7804 41.2415 46.3308 41.2415 45.8262C41.2415 45.4486 41.1719 45.1075 41.0326 44.8028C40.8933 44.4981 40.6881 44.2383 40.4171 44.0234C40.146 43.8084 39.81 43.643 39.4091 43.5271C39.0082 43.4112 38.548 43.3533 38.0284 43.3533C37.7536 43.3533 37.4703 43.3673 37.1786 43.3953C36.8868 43.4234 36.6007 43.4542 36.3203 43.4879L35.9094 43.5362L35.5184 43.5804C35.2643 43.6084 35.0394 43.6224 34.8436 43.6224C34.358 43.6224 33.9966 43.5393 33.7594 43.3729C33.5222 43.2065 33.4037 42.9925 33.4037 42.7308C33.4037 42.5963 33.4404 42.4607 33.5138 42.3243C33.5872 42.1878 33.718 42.0645 33.9062 41.9542C34.0945 41.8439 34.3476 41.7533 34.6657 41.6822C34.9838 41.6112 35.3895 41.5757 35.8826 41.5757C36.229 41.5757 36.5687 41.5953 36.9019 41.6346C37.2351 41.6738 37.5579 41.7271 37.8703 41.7944C38.1828 41.8617 38.4821 41.9411 38.7682 42.0327C39.0543 42.1243 39.3216 42.2243 39.57 42.3327L40.3549 40.8972C40.0538 40.7626 39.7281 40.6402 39.378 40.5299C39.0279 40.4196 38.6637 40.3252 38.2854 40.2467C37.907 40.1682 37.5183 40.1075 37.1193 40.0645C36.7202 40.0215 36.3231 40 35.9278 40C35.3819 40 34.8954 40.0383 34.4681 40.115C34.0408 40.1916 33.6643 40.2972 33.3387 40.4318C33.0131 40.5664 32.7354 40.7262 32.5058 40.9112C32.2762 41.0963 32.0889 41.2963 31.9439 41.5112C31.799 41.7262 31.6936 41.9514 31.6277 42.1869C31.5618 42.4224 31.5289 42.6598 31.5289 42.8991C31.5289 43.3028 31.6117 43.6561 31.7774 43.9589C31.943 44.2617 32.166 44.514 32.4465 44.7159C32.727 44.9178 33.0488 45.0692 33.4121 45.1701C33.7754 45.271 34.1547 45.3215 34.55 45.3215C34.7871 45.3215 35.0403 45.3056 35.3095 45.2738C35.5786 45.2421 35.8516 45.2075 36.1283 45.1701L36.5412 45.1161L36.9499 45.0664C37.2209 45.0346 37.4788 45.0187 37.7235 45.0187C38.2807 45.0187 38.6929 45.1112 38.9602 45.2963C39.2275 45.4813 39.3611 45.7327 39.3611 46.0505C39.3611 46.2486 39.3075 46.4318 39.2002 46.6C39.0929 46.7682 38.9216 46.9131 38.6863 47.0346C38.451 47.1561 38.147 47.2514 37.7743 47.3206C37.4016 47.3897 36.9499 47.4243 36.4191 47.4243C35.9786 47.4243 35.5636 47.3981 35.1739 47.3458C34.7843 47.2935 34.4126 47.2178 34.0587 47.1187C33.7048 47.0196 33.3632 46.8981 33.0338 46.7542ZM16 40.1121H17.8014V48.8766H16V40.1121ZM20.0714 40.1121H21.8615L27.3615 42.972V40.1121H29.1516V48.8766H27.3615V44.8561L21.8615 42.0131V48.8766H20.0714V40.1121ZM42.8791 40.1121H44.6692V44.9402C44.6692 45.3365 44.7237 45.6888 44.8329 45.9972C44.9421 46.3056 45.1049 46.5664 45.3214 46.7794C45.5378 46.9925 45.8061 47.1542 46.126 47.2645C46.446 47.3748 46.8187 47.4299 47.2441 47.4299C47.6658 47.4299 48.0375 47.3748 48.3594 47.2645C48.6813 47.1542 48.9504 46.9925 49.1669 46.7794C49.3834 46.5664 49.5462 46.3056 49.6553 45.9972C49.7645 45.6888 49.8191 45.3365 49.8191 44.9402V40.1121H51.6092V45.1533C51.6092 45.729 51.5113 46.2523 51.3155 46.7234C51.1198 47.1944 50.8355 47.5981 50.4628 47.9346C50.0901 48.271 49.6337 48.5308 49.0935 48.714C48.5533 48.8972 47.9368 48.9888 47.2441 48.9888C46.5514 48.9888 45.935 48.8972 45.3948 48.714C44.8546 48.5308 44.3981 48.271 44.0254 47.9346C43.6527 47.5981 43.3685 47.1944 43.1727 46.7234C42.977 46.2523 42.8791 45.729 42.8791 45.1533V40.1121ZM58.2781 40.1121H53.7888V48.8766H55.5789V46.3813L58.3402 46.3869L60.0004 48.8766H62.1914L60.2715 46.0729C60.6065 45.9458 60.8983 45.786 61.1467 45.5935C61.3952 45.4009 61.6013 45.1813 61.7651 44.9346C61.9288 44.6878 62.0502 44.4178 62.1293 44.1243C62.2083 43.8308 62.2479 43.5215 62.2479 43.1963C62.2479 42.714 62.1679 42.2822 62.0079 41.9009C61.8479 41.5196 61.6041 41.1963 61.2766 40.9308C60.9491 40.6654 60.5369 40.4626 60.0399 40.3224C59.543 40.1822 58.9557 40.1121 58.2781 40.1121ZM58.3233 44.8449C58.6621 44.8449 58.9586 44.8056 59.2127 44.7271C59.4668 44.6486 59.6795 44.5383 59.8508 44.3963C60.022 44.2542 60.15 44.0813 60.2347 43.8776C60.3195 43.6738 60.3618 43.4467 60.3618 43.1963C60.3618 42.7065 60.1924 42.328 59.8536 42.0607C59.5148 41.7935 59.0047 41.6598 58.3233 41.6598H55.5789V44.8449H58.3233ZM71.8814 40.1121H64.3654V48.8766H72V47.3234H66.1555V44.8841H71.2264V43.4206H66.1555V41.671H71.8814V40.1121Z" fill="#F3D3CA"/>
</g>
</g>
<defs>
<filter id="filter0_i_0_1337" x="0" y="0" width="88" height="88" filterUnits="userSpaceOnUse" color-interpolation-filters="sRGB">
<feFlood flood-opacity="0" result="BackgroundImageFix"/>
<feBlend mode="normal" in="SourceGraphic" in2="BackgroundImageFix" result="shape"/>
<feColorMatrix in="SourceAlpha" type="matrix" values="0 0 0 0 0 0 0 0 0 0 0 0 0 0 0 0 0 0 127 0" result="hardAlpha"/>
<feOffset/>
<feGaussianBlur stdDeviation="17.5"/>
<feComposite in2="hardAlpha" operator="arithmetic" k2="-1" k3="1"/>
<feColorMatrix type="matrix" values="0 0 0 0 0 0 0 0 0 0 0 0 0 0 0 0 0 0 0.0452633 0"/>
<feBlend mode="normal" in2="shape" result="effect1_innerShadow_0_1337"/>
</filter>
</defs>
</svg>

<svg width="88" height="88" fill="none" xmlns="http://www.w3.org/2000/svg"><g filter="url(#a)"><circle cx="44" cy="44" r="44" fill="#403646"/></g><path fill-rule="evenodd" clip-rule="evenodd" d="M33.034 46.754a10.98 10.98 0 0 1-.974-.485l-.955 1.441c.335.19.7.366 1.093.525.393.159.807.295 1.242.409a11.284 11.284 0 0 0 2.82.356 9.22 9.22 0 0 0 2.05-.21c.614-.14 1.139-.346 1.573-.617.435-.271.77-.604 1.006-.998.235-.395.352-.844.352-1.349 0-.377-.07-.718-.208-1.023a2.097 2.097 0 0 0-.616-.78 2.898 2.898 0 0 0-1.008-.496 4.982 4.982 0 0 0-1.38-.174c-.275 0-.559.014-.85.042-.292.028-.578.06-.859.093l-.41.048-.392.044a6.241 6.241 0 0 1-.674.042c-.486 0-.847-.083-1.085-.25-.237-.166-.355-.38-.355-.641 0-.135.036-.27.11-.407.073-.136.204-.26.392-.37.188-.11.442-.2.76-.272.318-.07.724-.106 1.217-.106.346 0 .686.02 1.019.059a10.02 10.02 0 0 1 1.866.398 8.1 8.1 0 0 1 .802.3l.785-1.436a9.08 9.08 0 0 0-.977-.367 11.672 11.672 0 0 0-3.45-.53 8.32 8.32 0 0 0-1.46.115 5.506 5.506 0 0 0-1.13.317 3.372 3.372 0 0 0-.832.48c-.23.184-.417.384-.562.6-.145.214-.25.44-.316.675a2.631 2.631 0 0 0-.1.712c0 .404.084.757.25 1.06.165.303.388.555.669.757.28.202.602.353.965.454a4.23 4.23 0 0 0 1.138.151c.237 0 .49-.015.76-.047.269-.032.542-.066.818-.104l.413-.054.409-.05c.27-.031.529-.047.773-.047.558 0 .97.092 1.237.277a.873.873 0 0 1 .401.755c0 .198-.053.38-.16.549-.108.168-.28.313-.515.435a3.374 3.374 0 0 1-.912.286 7.574 7.574 0 0 1-1.355.103 9.37 9.37 0 0 1-1.245-.078 7.832 7.832 0 0 1-2.14-.592ZM16 40.112h1.801v8.765H16v-8.765Zm4.071 0h1.79l5.5 2.86v-2.86h1.79v8.765h-1.79v-4.02l-5.5-2.844v6.864h-1.79v-8.765Zm22.808 0h1.79v4.828c0 .397.055.749.164 1.057.11.309.272.57.488.782.217.213.485.375.805.485.32.11.693.166 1.118.166a3.41 3.41 0 0 0 1.115-.166c.322-.11.591-.272.808-.485.216-.213.38-.473.488-.782.11-.308.164-.66.164-1.057v-4.828h1.79v5.041c0 .576-.098 1.1-.294 1.57a3.34 3.34 0 0 1-.852 1.212c-.373.336-.83.596-1.37.779-.54.183-1.156.275-1.849.275-.693 0-1.309-.092-1.85-.275a3.868 3.868 0 0 1-1.369-.78 3.335 3.335 0 0 1-.852-1.21 4.055 4.055 0 0 1-.294-1.57v-5.042Zm15.4 0h-4.49v8.765h1.79V46.38l2.761.006 1.66 2.49h2.191l-1.92-2.804c.335-.127.627-.287.876-.48.248-.192.454-.412.618-.658a2.75 2.75 0 0 0 .364-.81 3.52 3.52 0 0 0 .119-.929c0-.482-.08-.914-.24-1.295a2.456 2.456 0 0 0-.731-.97c-.328-.266-.74-.468-1.237-.609-.497-.14-1.084-.21-1.762-.21Zm.044 4.733c.34 0 .636-.04.89-.118a1.85 1.85 0 0 0 .638-.33c.171-.143.299-.316.384-.52.084-.203.127-.43.127-.68 0-.49-.17-.869-.508-1.136-.34-.267-.85-.401-1.53-.401h-2.745v3.185h2.744Zm13.558-4.733h-7.516v8.765H72v-1.554h-5.844v-2.439h5.07v-1.463h-5.07v-1.75h5.725v-1.559Z" fill="#F3D3CA"/><defs><filter id="a" x="0" y="0" width="88" height="88" filterUnits="userSpaceOnUse" color-interpolation-filters="sRGB"><feFlood flood-opacity="0" result="BackgroundImageFix"/><feBlend in="SourceGraphic" in2="BackgroundImageFix" result="shape"/><feColorMatrix in="SourceAlpha" values="0 0 0 0 0 0 0 0 0 0 0 0 0 0 0 0 0 0 127 0" result="hardAlpha"/><feOffset/><feGaussianBlur stdDeviation="17.5"/><feComposite in2="hardAlpha" operator="arithmetic" k2="-1" k3="1"/><feColorMatrix values="0 0 0 0 0 0 0 0 0 0 0 0 0 0 0 0 0 0 0.0452633 0"/><feBlend in2="shape" result="effect1_innerShadow_0_1337"/></filter></defs></svg>
